X: 3422
T: LOCHABER NO MORE
Q: "Andante."
%R: air, waltz
B: James Kerr "Merry Melodies" v.3 p.47 #422
Z: 2016 John Chambers <jc:trillian.mit.edu>
M: 3/4
L: 1/8
K: G
(GA) |\
B2B2(Bc) | B2A2(Bd) | e2A2(AB) | B2A2(GA) |\
BdcBAG | E2D2(GA) | B2G2(GA) | G4 ::\
(GA) |\
B2B2(Bc) | d2(cB)(AB) | G2g2(ga) | a2g2(GA) |
B2B2(Bc) | d2(cB)(AB) | G2g2(ga) | g4(de) |\
=f2f2(ed) | e4(EG) | A2A2(3(GAB) | B2A2(GA) |\
BdcBAG | E2D2(GA) | B2G2(GA) | G4 :|

%%sep 1 1 500
%%sep 1 1 500

